X:68
T:Lady Margaret Stewart
B:Athole Collection
M:C
Z:posted by Ted Hastings 4/97
K:Bm
g | ~f (Bf) {c}dBfB | sf^gas (ef) ~cAec | ~f (Bf) {c}dBed | ec{^g}ac
B/2B/2B ~B :||
A | (FB)Bc {c}dBcA | (EA)AB (cd)ec | (FB)Bc {c}dBdb | afec B/2B/2B ~BA |
(FB)Bc {c}dBcA | (EA)AB (cd)ec | {c}dBdb cAce | {c}dfec B/2B/2B B ||
